X:457
T: Buyao meiren ye cheng qin
N: C1492
O: China, Yunnan, Heqing, Dianbei
S: II, 80]
R: Shange. Nann qing]
M: 3/4
L: 1/4
K: G
ea | ba2 | eba | aee | ade | e3 | dBz
eab | a2 | ded | e2 | dB | ega | dge | ded2 | BA2

